!!!ONB: MCCC : IJH0421_04 : Extracted Monophonic Melody
!!!COM: Haydn, Joseph
!!!OPR: String Quartet in C major
!!!OMV: 4
!!!SCT: Hob.III:65 ; Op.64 No.1
!!!ODT: 1790///
**kern
*thru
*>A
*clefG2
*k[]
*C:
*M6/8
8cc
2r
8r
=1
8cc
8r
8cc
8cc
8r
16cc
16cc
=2
8cc
8b
8a
8g
8r
8f
=3
4f
8e
8d
8f
8a
=4
4.c
8B
8r
8cc
=5
8cc
8r
8cc
8cc
8r
16cc
16cc
=6
8cc
8b
8a
8g
8r
8f
=7
4f
8e
8d
8f
8a
=8
4c
16e
16d
8c
8r
16ff#
16gg
=9
16aa
16gg
16ff
16ee
16dd
16cc
16b
16a
16g
16f
16e
16d
=10
8c
8e
8g
8cc
8ee
16ff#
16gg
=11
16aa
16gg
16ff
16ee
16dd
16cc
16b
16a
16g
16f
16e
16d
=12
8c
8e
8g
8cc
8ee
16gg#
16aa
=13
16bb
16aa
16ccc
16bb
16aa
16gg
16ff#
16ee
16dd
16cc
16b
16a
=14
8g
8b
8dd
8gg
8bb
8ddd
=15
8ddd
8r
8ddd
8ddd
8r
16ddd
16ddd
=16
8ddd
8ccc
8ccc
8ccc
8aa#
8bb
=17
8bb
8aa
8aa
8aa
8ff#
8gg
=18
16gg
16ff#
16aa
16gg
16bb
16aa
8gg
8gg
8gg
=19
16gg
16ff#
16aa
16gg
16bb
16aa
8gg
8gg
8gg
=20
16gg
16ff#
16aa
16gg
16bb-
16aa
8gg
8gg
8gg
=21
8ff#
8ff#
8ff#
8ff#
8ff#
8ff#
=22
8ff#
8r
8r
4r
16ddd
16ccc
=23
16bb
16aa
16gg
16ff#
16ee
16dd
16cc
16b
16a
16g
16f#
16e
=24
8d
8f#
8a
8cc
8r
16ccc
16bb
=25
16aa
16gg
16ff#
16ee
16dd
16cc
16b
16a
16g
16f#
16e
16d
=26
8c
8B
8f#
4g
16ff#
16gg
=27
16aa
16gg
16bb
16gg
16dd#
16ee
16ff#
16ee
16gg
16ee
16b
16cc
=28
16dd
16cc
16ee
16cc
16g#
16a
16cc
16b
16dd
16cc
16ee
16dd
=29
16ff
16ee
16dd
16cc
16b
16a
16ff
16ee
16dd
16cc
16b
16a
=30
4g
16b
16a
8g
8r
8d
=31
8d
8g
8b
8e
8a
8cc
=32
8f#
8a
8dd
16ee
16dd
16cc
16b
16a
16g
=33
8g
8gg
8gg
16aa
16gg
16ff#
16ee
16dd
16cc
=34
8.b
16cc
8a
8g
8r
8r
=35
8r
8ddd
8ddd
8ddd
8ccc
8ccc
=36
16ddd
16ccc
16bb
16aa
16gg
16ff#
8gg
8r
8g
=37
8g
8gg
8gg
16aa
16gg
16ff#
16ee
16dd
16cc
=38
8.b
16cc
8a
8g
8r
8gg
=39
8gg
8r
8gg
8gg
8r
16gg
16gg
=40
8gg
8gg
8gg
8gg
8r
=41
*>A
8cc
2r
8r
=42
8cc
8r
8cc
8cc
8r
16cc
16cc
=43
8cc
8b
8a
8g
8r
8f
=44
4f
8e
8d
8f
8a
=45
4.c
8B
8r
8cc
=46
8cc
8r
8cc
8cc
8r
16cc
16cc
=47
8cc
8b
8a
8g
8r
8f
=48
4f
8e
8d
8f
8a
=49
4c
16e
16d
8c
8r
16ff#
16gg
=50
16aa
16gg
16ff
16ee
16dd
16cc
16b
16a
16g
16f
16e
16d
=51
8c
8e
8g
8cc
8ee
16ff#
16gg
=52
16aa
16gg
16ff
16ee
16dd
16cc
16b
16a
16g
16f
16e
16d
=53
8c
8e
8g
8cc
8ee
16gg#
16aa
=54
16bb
16aa
16ccc
16bb
16aa
16gg
16ff#
16ee
16dd
16cc
16b
16a
=55
8g
8b
8dd
8gg
8bb
8ddd
=56
8ddd
8r
8ddd
8ddd
8r
16ddd
16ddd
=57
8ddd
8ccc
8ccc
8ccc
8aa#
8bb
=58
8bb
8aa
8aa
8aa
8ff#
8gg
=59
16gg
16ff#
16aa
16gg
16bb
16aa
8gg
8gg
8gg
=60
16gg
16ff#
16aa
16gg
16bb
16aa
8gg
8gg
8gg
=61
16gg
16ff#
16aa
16gg
16bb-
16aa
8gg
8gg
8gg
=62
8ff#
8ff#
8ff#
8ff#
8ff#
8ff#
=63
8ff#
8r
8r
4r
16ddd
16ccc
=64
16bb
16aa
16gg
16ff#
16ee
16dd
16cc
16b
16a
16g
16f#
16e
=65
8d
8f#
8a
8cc
8r
16ccc
16bb
=66
16aa
16gg
16ff#
16ee
16dd
16cc
16b
16a
16g
16f#
16e
16d
=67
8c
8B
8f#
4g
16ff#
16gg
=68
16aa
16gg
16bb
16gg
16dd#
16ee
16ff#
16ee
16gg
16ee
16b
16cc
=69
16dd
16cc
16ee
16cc
16g#
16a
16cc
16b
16dd
16cc
16ee
16dd
=70
16ff
16ee
16dd
16cc
16b
16a
16ff
16ee
16dd
16cc
16b
16a
=71
4g
16b
16a
8g
8r
8d
=72
8d
8g
8b
8e
8a
8cc
=73
8f#
8a
8dd
16ee
16dd
16cc
16b
16a
16g
=74
8g
8gg
8gg
16aa
16gg
16ff#
16ee
16dd
16cc
=75
8.b
16cc
8a
8g
8r
8r
=76
8r
8ddd
8ddd
8ddd
8ccc
8ccc
=77
16ddd
16ccc
16bb
16aa
16gg
16ff#
8gg
8r
8g
=78
8g
8gg
8gg
16aa
16gg
16ff#
16ee
16dd
16cc
=79
8.b
16cc
8a
8g
8r
8gg
=80
8gg
8r
8gg
8gg
8r
16gg
16gg
=81
8gg
8gg
8gg
8gg
8r
=82
*>B
8gg
2r
8r
=83
16gg
16bb
16ddd
16ccc
16bb
16aa
8gg
8r
8r
=84
2.r
=85
2.r
=86
2.r
=87
2.r
=88
2.r
=89
8r
8r
8a
8a
8r
8a
=90
8a
8r
16a
16a
8a
8g#
8a
=91
8b
8r
16b
16b
8b
8a
8b
=92
8cc
8b
8cc
8dd
8r
16dd
16dd
=93
8dd
8cc
8dd
8ee
8dd
8ee
=94
8ff
8r
8ff
8ff
8r
16ff
16ff
=95
8ff
8ee
8dd
8cc
8r
8aa
=96
8aa
8r
16aa
16aa
8aa
8gg
8ff
=97
8ee
8r
16ccc
16ccc
8ccc
8aa
16gg
16ff
=98
8ee
8gg
8gg
8r
8gg
8gg
=99
8r
16gg
16gg
8gg
8gg
8ff
8ee
=100
8dd
8aa
8aa
8r
8aa
8aa
=101
8r
16aa
16aa
8aa
8aa
8gg
8ff
=102
8ee
8r
8ee
8ee
8r
16ee
16ee
=103
8dd#
8dd#
8dd#
8ee
8r
8ff
=104
8ff
8r
8ff
8ff
8r
16ee
16ff
=105
16ee
16ff
16bb
16ff
16ee
16ff
16ee
16ff
16bb
16ff
8ff
=106
8ff
8r
8ff
8ff
8r
16dd#
16ee
=107
16dd#
16ee
16ddd
16ee
16dd#
16ee
16dd#
16ee
16ddd
16ee
16gg#
16aa
=108
16gg#
16aa
16ccc
16aa
16ee
16ff
16ee
16ff
16aa
16ff
16cc#
16dd
=109
16cc#
16dd
16ff
16dd
16a#
16b
16a#
16b
16dd
16b
16g#
16a
=110
16g#
16a
16cc
16a
16e
16c
16f
16d
16e
16c
16d
16B
=111
2.A
=112
8B-
8r
8B-
8B-
8r
16B-
16B-
=113
8B-
8A
8c#
8d
8e
8f
=114
4.e
8d
8r
8cc
=115
8cc
8r
8cc
8cc
8r
16cc
16cc
=116
8cc
8b
8a
8g
8r
8f
=117
4f
8e
8d
8f
8a
=118
4.c
8B
8r
16b
16cc
=119
16b
16cc
16ee
16cc
16b
16cc
16b
16cc
16ee
16cc
16b
16cc
=120
16dd
16cc
16cc
16b
16b
16a
16a
16g
16f#
16g
16e
16f
=121
16e
16f
16a
16f
16d#
16e
16c#
16d
16e
16f
16g
16a
=122
4c
16e
16d
8c
8r
16ff#
16gg
=123
16aa
16gg
16ff
16ee
16dd
16cc
16b
16a
16g
16f
16e
16d
=124
8c
8e
8g
8cc
8ee
16ff#
16gg
=125
16aa
16gg
16ff
16ee
16dd
16cc
16b
16a
16g
16f
16e
16d
=126
8c
8e
8g
8cc
8ee
16gg
16aa
=127
16bb-
16aa
16gg
16ff
16ee
16dd
16cc
16b-
16a
16g
16f
16e
=128
8f
8a
8cc
8ff
8aa
8ccc
=129
8ccc
8r
8ccc
8ccc
8r
16ccc
16ccc
=130
8ccc
8bb-
8bb-
8bb-
8gg#
8aa
=131
8aa
8gg
8gg
8gg
8ee
8ff
=132
16ff
16gg
16aa
16bb
16ccc
16ddd
16ee
16ff
16gg
16aa
16bb
16ccc
=133
16a
16b
16cc
16dd
16ee
16ff#
8gg
8r
16gg
16ff
=134
16ee
16dd
16cc
16b
16a
16g
16f
16e
16d
16c
16B
16A
=135
8G
8B
8d
8f
8r
16G
16A
=136
16B
16c
16d
16e
16f
16g
16f
16b
16dd
16ff
16aa
16ff
=137
8ff
8ee
8bb
8ccc
8r
16bb
16ccc
=138
16bb
16ccc
16eee
16ccc
16gg#
16aa
16gg#
16aa
16ccc
16aa
16ee
16ff
=139
16ee
16ff
16aa
16ff
16cc#
16dd
16ff
16ee
16gg
16ff
16aa
16gg
=140
16bb-
16aa
16gg
16ff
16ee
16dd
8cc
8b
8aa
=141
8aa
8r
8aa
8aa
8r
16aa
16aa
=142
8aa
8gg
8ff
8ee
8dd
8ff
=143
4cc
16ee
16dd
8cc
8r
8a
=144
8a
8r
8a
8a
8r
16a
16a
=145
8a
8g
8f
8e
8d
8f
=146
4c
16e
16d
8c
8r
8cc
=147
8cc
8r
8cc
8cc
8r
16cc
16cc
=148
8cc
8b
8a
8g
8r
8e
=149
8e
8r
8f
8f
8r
16f
16f
=150
8f
8e
8d
8c
8r
8r
=151
16d
16c#
16d
16f
16e
16d
8c
8r
8r
=152
4.B
8c
8r
==
*-
